cssgg/format-center.svg

<svg
  width="24"
  height="24"
  viewBox="0 0 24 24"
  fill="none"
  xmlns="http://www.w3.org/2000/svg"
>
  <path
    d="M4 5C3.44772 5 3 5.44772 3 6C3 6.55228 3.44772 7 4 7H20C20.5523 7 21 6.55228 21 6C21 5.44772 20.5523 5 20 5H4Z"
    fill="currentColor"
  />
  <path
    d="M4 13C3.44772 13 3 13.4477 3 14C3 14.5523 3.44772 15 4 15H20C20.5523 15 21 14.5523 21 14C21 13.4477 20.5523 13 20 13H4Z"
    fill="currentColor"
  />
  <path
    d="M6 10C6 9.44772 6.44772 9 7 9H17C17.5523 9 18 9.44772 18 10C18 10.5523 17.5523 11 17 11H7C6.44772 11 6 10.5523 6 10Z"
    fill="currentColor"
  />
  <path
    d="M7 17C6.44772 17 6 17.4477 6 18C6 18.5523 6.44772 19 7 19H17C17.5523 19 18 18.5523 18 18C18 17.4477 17.5523 17 17 17H7Z"
    fill="currentColor"
  />
</svg>

<svg viewBox="0 0 24 24" xmlns="http://www.w3.org/2000/svg"><g><path d="M4 5c-.56 0-1 .44-1 1 0 .55.44 1 1 1h16c.55 0 1-.45 1-1 0-.56-.45-1-1-1H4Z"/><path d="M4 13c-.56 0-1 .44-1 1 0 .55.44 1 1 1h16c.55 0 1-.45 1-1 0-.56-.45-1-1-1H4Z"/><path d="M6 10c0-.56.44-1 1-1h10c.55 0 1 .44 1 1 0 .55-.45 1-1 1H7c-.56 0-1-.45-1-1Z"/><path d="M7 17c-.56 0-1 .44-1 1 0 .55.44 1 1 1h10c.55 0 1-.45 1-1 0-.56-.45-1-1-1H7Z"/></g></svg>
